X: 41421
T: Twins On A Swing
R: jig
M: 6/8
K: Ddorian
|:d2 c ADD|ABc ADD|A/B/cA GED|~E3 GAc|
d2 c ADD|ABc ADD|D/E/FD E2 C|1 A,B,C DFA:|2 A,B,C D2 E||
|:~F3 ABc|Ad^c d2 e|fed edc|dgg a2 g|
fed e2 f|edc Adc|ADD C,A,G|1 A,DD D2 E:|2 A,DD DFA||

